components/icon/svg/24/journey_alternative-connection.svg

<?xml version="1.0" encoding="UTF-8"?>
<svg width="24px" height="24px" viewBox="0 0 24 24" version="1.1" xmlns="http://www.w3.org/2000/svg" xmlns:xlink="http://www.w3.org/1999/xlink">
    <!-- Generator: Sketch 64 (93537) - https://sketch.com -->
    <title>ic-db_journey_alternative-connection_24</title>
    <desc>Created with Sketch.</desc>
    <g id="Symbols" stroke="none" stroke-width="1" fill="none" fill-rule="evenodd">
        <g id="24dp-Icon/Journey/Alternative-Connection" fill="#282D37">
            <path d="M2,18.0194 C2,18.5696 2.4531,19.0227 3.0032,19.0227 L9.0227,19.0227 C10.6731,19.0227 12,17.6634 12,16.0129 L12,10.9968 C12,10.4466 12.4531,9.9935 13.0356,9.9935 L18.6343,9.9935 L17.3074,11.288 C17.1133,11.4822 17.0162,11.7411 17.0162,12 C17.0162,12.2589 17.1133,12.5178 17.3074,12.712 C17.5016,12.9061 17.7605,13.0032 18.0194,13.0032 C18.2783,13.0032 18.5372,12.9061 18.7314,12.712 L21.7411,9.6699 C21.9029,9.4757 22,9.2168 22,8.9579 C22,8.699 21.9353,8.4725 21.7411,8.2783 L18.7314,5.2686 C18.5372,5.0744 18.3107,4.9773 18.0518,4.9773 L17.9871,4.9773 C17.7282,4.9773 17.5016,5.0744 17.3074,5.2686 C17.1133,5.4628 17.0162,5.7217 17.0162,5.9806 C17.0162,6.2718 17.1133,6.4984 17.3074,6.6926 L18.6343,7.9871 L13.0356,7.9871 C11.3528,7.9871 9.9935,9.3463 9.9935,10.9968 L9.9935,16.0129 C9.9935,16.5631 9.5728,17.0162 9.0227,17.0162 L3.0032,17.0162 C2.4531,17.0162 2,17.4369 2,18.0194 Z M2,8.9773 C2,8.42885502 2.4516322,7.9773 2.99995016,7.9773 C3.5483678,7.9773 4,8.42885502 4,8.9773 C4,9.52574498 3.5483678,9.9773 2.99995016,9.9773 C2.4516322,9.9773 2,9.52574498 2,8.9773 Z M6,8.9773 C6,8.42885502 6.47616245,7.9773 7.0158917,7.9773 C7.52383755,7.9773 8,8.42885502 8,8.9773 C8,9.52574498 7.52383755,9.9773 7.0158917,9.9773 C6.47616245,9.9773 6,9.52574498 6,8.9773 Z" id="🎨-Color"></path>
        </g>
    </g>
</svg>

<svg width="24" height="24" xmlns="http://www.w3.org/2000/svg"><path d="M2 18.02c0 .55.453 1.003 1.003 1.003h6.02c1.65 0 2.977-1.36 2.977-3.01v-5.016c0-.55.453-1.004 1.036-1.004h5.598l-1.327 1.295a1.004 1.004 0 00-.29.712c0 .259.096.518.29.712.195.194.454.291.712.291.26 0 .518-.097.712-.291l3.01-3.042c.162-.194.259-.453.259-.712 0-.259-.065-.486-.259-.68l-3.01-3.01a.931.931 0 00-.68-.29h-.064a.932.932 0 00-.68.29 1.004 1.004 0 00-.29.713c0 .29.096.517.29.712l1.327 1.294h-5.598c-1.683 0-3.043 1.36-3.043 3.01v5.016c0 .55-.42 1.003-.97 1.003h-6.02A.988.988 0 002 18.02zm0-9.043c0-.548.452-1 1-1s1 .452 1 1c0 .549-.452 1-1 1s-1-.451-1-1zm4 0c0-.548.476-1 1.016-1 .508 0 .984.452.984 1 0 .549-.476 1-.984 1-.54 0-1.016-.451-1.016-1z" fill="#282D37" fill-rule="evenodd"/></svg>
